public/images/filetto2.svg

<?xml version="1.0" encoding="UTF-8" standalone="no"?>
<!-- Generator: Adobe Illustrator 16.0.0, SVG Export Plug-In . SVG Version: 6.00 Build 0)  -->
<!DOCTYPE svg  PUBLIC '-//W3C//DTD SVG 1.1//EN'  'http://www.w3.org/Graphics/SVG/1.1/DTD/svg11.dtd'>
<svg id="Livello_1" xmlns="http://www.w3.org/2000/svg" xml:space="preserve" height="324.33px" viewBox="0 0 23.157 324.327" width="23.157px" version="1.1" y="0px" x="0px" enable-background="new 0 0 23.157 324.327">
<path d="m13.886 22.925c5.282-1.073 9.271-5.752 9.271-11.346 0-6.385-5.194-11.579-11.578-11.579s-11.579 5.194-11.579 11.579c0 5.594 3.989 10.273 9.271 11.346-5.023 1.062-8.721 5.518-8.721 10.858 0 5.94 4.606 10.776 10.606 11.074v279.14h1v-279.14c6-0.297 10.529-5.133 10.529-11.074 0.001-5.343-3.775-9.799-8.799-10.861zm-12.933-11.346c0-5.859 4.767-10.626 10.625-10.626s10.626 4.767 10.626 10.626c0 5.859-4.766 10.625-10.625 10.625s-10.626-4.766-10.626-10.625z"/>
</svg>

<?xml version="1.0" encoding="utf-8"?>
<!-- Generator: Adobe Illustrator 16.0.0, SVG Export Plug-In . SVG Version: 6.00 Build 0)  -->
<!DOCTYPE svg PUBLIC "-//W3C//DTD SVG 1.1//EN" "http://www.w3.org/Graphics/SVG/1.1/DTD/svg11.dtd">
<svg version="1.1" id="Livello_1" xmlns="http://www.w3.org/2000/svg" xmlns:xlink="http://www.w3.org/1999/xlink" x="0px" y="0px"
	 width="23.157px" height="324.327px" viewBox="0 0 23.157 324.327" enable-background="new 0 0 23.157 324.327"
	 xml:space="preserve">
<path d="M13.886,22.925c5.282-1.073,9.271-5.752,9.271-11.346C23.157,5.194,17.963,0,11.579,0S0,5.194,0,11.579
	c0,5.594,3.989,10.273,9.271,11.346C4.248,23.987,0.55,28.443,0.55,33.783c0,5.94,4.606,10.776,10.606,11.074V324h1V44.857
	c6-0.297,10.529-5.133,10.529-11.074C22.686,28.443,18.91,23.987,13.886,22.925z M0.953,11.579c0-5.859,4.767-10.626,10.625-10.626
	S22.204,5.72,22.204,11.579c0,5.859-4.766,10.625-10.625,10.625S0.953,17.438,0.953,11.579z"/>
</svg>
